X: 149
T:Timour The Tartar
T:Blanchland Races
T:Peter Street
R:reel
C:Kevin Briggs, via EF
S:Nottingham Music Database
M:4/4
L:1/8
Q:1/2=112
K:A
e|:A2 (3cBA eA (3cBA|eAaA gAfA|A2 (3cBA eA (3cBA|BEdE cEBE|
A2 (3cBA eA (3cBA|eAaA gAfA|efec eaec|BABc A4:|
|:E2 (3GFE BE (3GFE|BEdE cEBE|A2 (3cBA eA (3cBA|eAaA gAfA|
efec agaf|efec agaf|ecag fedc|[1 BAGF EDCD:|[2 BAGF EEFG|
